;FLAVOR:UltiGCode
;TIME:7188
;MATERIAL:17650
;MATERIAL2:0
;NOZZLE_DIAMETER:0.4
;MINX:45.825
;MINY:50.221
;MINZ:0.27
;MAXX:177.175
;MAXY:176.571
;MAXZ:15.07
;Generated with Cura_SteamEngine 4.6.1
M82 ;absolute extrusion mode

G92 E0
G92 E0
G10
;LAYER_COUNT:75
;LAYER:0
M107
G0 F4500 X79.582 Y50.381 Z0.27
;TYPE:SKIRT
G11
G1 F1800 X82.337 Y50.458 E0.26045
G1 X85.057 Y50.458 E0.51749
G1 X87.829 Y50.379 E0.77955
G1 X89.229 Y50.308 E0.91202
G1 X90.486 Y50.236 E1.031
G1 X90.997 Y50.221 E1.07931
G1 X103.894 Y50.221 E2.29808
G1 X104.6 Y50.231 E2.3648
G1 X107.347 Y50.381 E2.62478
G1 X110.109 Y50.458 E2.88589
G1 X112.828 Y50.458 E3.14284
G1 X115.601 Y50.379 E3.40499
G1 X117.006 Y50.308 E3.53793
G1 X118.263 Y50.236 E3.65691
G1 X118.774 Y50.221 E3.70522
G1 X131.671 Y50.221 E4.92399
G1 X132.377 Y50.231 E4.99071
G1 X135.137 Y50.381 E5.25192
G1 X137.892 Y50.458 E5.51237
G1 X140.612 Y50.458 E5.76941
G1 X143.382 Y50.379 E6.03128
G1 X144.784 Y50.308 E6.16394
G1 X146.041 Y50.236 E6.28292
G1 X146.552 Y50.221 E6.33123
G1 X159.449 Y50.221 E7.55
G1 X160.147 Y50.231 E7.61596
G1 X160.649 Y50.278 E7.66361
G1 X161.072 Y50.383 E7.7048
G1 X163.692 Y51.224 E7.96483
G1 X166.368 Y52.002 E8.22818
G1 X168.987 Y52.685 E8.48396
G1 X171.703 Y53.31 E8.74733
G1 X172.183 Y53.461 E8.79488
G1 X172.634 Y53.687 E8.84255
G1 X173.043 Y53.981 E8.89015
G1 X173.4 Y54.336 E8.93773
G1 X173.697 Y54.743 E8.98534
G1 X173.925 Y55.191 E9.03284
G1 X174.08 Y55.67 E9.08042
G1 X174.635 Y59.189 E9.41707
G1 X175.141 Y61.9 E9.67769
G1 X175.718 Y64.565 E9.93537
G1 X176.364 Y67.195 E10.19129
G1 X177.051 Y69.699 E10.43666
G1 X177.162 Y70.433 E10.50681
G1 X177.175 Y70.869 E10.54803
G1 X177.175 Y87 E12.07241
G1 X177.165 Y87.716 E12.14008
G1 X177.033 Y89.606 E12.31912
G1 X176.883 Y92.318 E12.5758
G1 X176.809 Y95.071 E12.83605
G1 X176.813 Y97.792 E13.09318
G1 X176.895 Y100.553 E13.35421
G1 X177.15 Y104.471 E13.72525
G1 X177.173 Y105.033 E13.7784
G1 X177.175 Y121.285 E15.31422
G1 X177.165 Y122.002 E15.38198
G1 X177.033 Y123.891 E15.56092
G1 X176.883 Y126.603 E15.8176
G1 X176.809 Y129.356 E16.07785
G1 X176.813 Y132.077 E16.33499
G1 X176.895 Y134.84 E16.59621
G1 X177.158 Y138.905 E16.98115
G1 X177.175 Y139.439 E17.03164
G1 X177.175 Y155.571 E18.55611
G1 X177.165 Y156.288 E18.62388
G1 X177.118 Y156.79 E18.67152
G1 X176.701 Y158.369 E18.82585
G1 X176.011 Y161.026 E19.08527
G1 X175.399 Y163.685 E19.34311
G1 X174.854 Y166.402 E19.60499
G1 X174.401 Y169.061 E19.85988
G1 X174.279 Y169.92 E19.94187
G1 X174.13 Y170.862 E20.032
G1 X174.012 Y171.352 E20.07963
G1 X173.819 Y171.817 E20.1272
G1 X173.554 Y172.245 E20.17477
G1 X173.225 Y172.626 E20.22234
G1 X172.84 Y172.95 E20.2699
G1 X172.408 Y173.21 E20.31754
G1 X171.771 Y173.445 E20.38171
G1 X170.812 Y173.687 E20.47517
G1 X167.956 Y174.375 E20.75279
G1 X165.347 Y175.086 E21.00833
G1 X162.292 Y176.017 E21.31013
G1 X161.086 Y176.407 E21.42991
G1 X160.596 Y176.523 E21.4775
G1 X159.878 Y176.57 E21.54549
G1 X146.884 Y176.571 E22.77342
G1 X146.179 Y176.561 E22.84005
G1 X143.418 Y176.411 E23.10135
G1 X140.663 Y176.334 E23.3618
G1 X137.944 Y176.334 E23.61875
G1 X135.173 Y176.413 E23.88071
G1 X133.771 Y176.484 E24.01337
G1 X132.514 Y176.556 E24.13235
G1 X132.003 Y176.571 E24.18066
G1 X119.106 Y176.571 E25.39943
G1 X118.401 Y176.561 E25.46606
G1 X115.655 Y176.411 E25.72594
G1 X112.891 Y176.334 E25.98724
G1 X110.173 Y176.334 E26.24409
G1 X107.399 Y176.413 E26.50634
G1 X105.994 Y176.484 E26.63928
G1 X104.737 Y176.556 E26.75827
G1 X104.226 Y176.571 E26.80658
G1 X91.329 Y176.571 E28.02534
G1 X90.624 Y176.561 E28.09197
G1 X87.863 Y176.411 E28.35327
G1 X85.108 Y176.334 E28.61372
G1 X82.389 Y176.334 E28.87067
G1 X79.618 Y176.413 E29.13263
G1 X78.216 Y176.484 E29.26529
G1 X76.959 Y176.556 E29.38427
G1 X76.448 Y176.571 E29.43258
G1 X63.551 Y176.571 E30.65135
G1 X62.848 Y176.561 E30.71779
G1 X62.346 Y176.514 E30.76544
G1 X61.921 Y176.408 E30.80683
G1 X59.319 Y175.571 E31.06513
G1 X56.625 Y174.787 E31.33027
G1 X54.022 Y174.109 E31.58446
G1 X51.297 Y173.482 E31.8487
G1 X50.817 Y173.331 E31.89625
G1 X50.366 Y173.105 E31.94393
G1 X49.957 Y172.811 E31.99152
G1 X49.6 Y172.456 E32.0391
G1 X49.303 Y172.049 E32.08672
G1 X49.075 Y171.601 E32.13422
G1 X48.92 Y171.122 E32.1818
G1 X48.364 Y167.597 E32.51903
G1 X47.86 Y164.897 E32.77858
G1 X47.282 Y162.227 E33.03674
G1 X46.632 Y159.583 E33.29404
G1 X45.949 Y157.098 E33.53758
G1 X45.854 Y156.603 E33.58521
G1 X45.826 Y156.018 E33.64056
G1 X45.825 Y139.771 E35.1759
G1 X45.835 Y139.074 E35.24177
G1 X45.967 Y137.186 E35.42062
G1 X46.117 Y134.474 E35.6773
G1 X46.191 Y131.721 E35.93755
G1 X46.187 Y129 E36.19469
G1 X46.105 Y126.237 E36.45591
G1 X45.841 Y122.162 E36.8418
G1 X45.825 Y121.638 E36.89134
G1 X45.825 Y105.486 E38.41771
G1 X45.835 Y104.788 E38.48367
G1 X45.967 Y102.9 E38.66252
G1 X46.117 Y100.188 E38.9192
G1 X46.191 Y97.435 E39.17945
G1 X46.187 Y94.714 E39.43659
G1 X46.105 Y91.953 E39.69762
G1 X45.85 Y88.035 E40.06865
G1 X45.827 Y87.473 E40.12181
G1 X45.825 Y71.2 E41.6596
G1 X45.835 Y70.503 E41.72548
G1 X45.882 Y70.002 E41.77303
G1 X46.299 Y68.424 E41.92727
G1 X46.989 Y65.766 E42.18678
G1 X47.604 Y63.097 E42.44561
G1 X48.14 Y60.411 E42.70444
G1 X48.609 Y57.67 E42.96723
G1 X48.723 Y56.864 E43.04415
G1 X48.871 Y55.923 E43.13417
G1 X48.989 Y55.434 E43.18171
G1 X49.183 Y54.969 E43.22932
G1 X49.447 Y54.541 E43.27684
G1 X49.777 Y54.159 E43.32454
G1 X50.162 Y53.835 E43.3721
G1 X50.594 Y53.576 E43.41969
G1 X51.26 Y53.333 E43.48669
G1 X55.052 Y52.415 E43.85539
G1 X57.653 Y51.706 E44.11015
G1 X60.689 Y50.781 E44.41007
G1 X61.916 Y50.385 E44.53191
G1 X62.407 Y50.269 E44.57959
G1 X63.113 Y50.223 E44.64645
G1 X76.116 Y50.221 E45.87523
G1 X76.822 Y50.231 E45.94195
G1 X79.582 Y50.381 E46.20316
G10
G0 F4500 X84.479 Y68.988
G0 X86.912 Y69.055
G0 X86.912 Y70.737
G0 X84.956 Y70.802
G0 X87.6 Y80.846
;TYPE:SUPPORT
G11
G1 F1800 X95.4 Y80.846 E46.94026
G1 X95.4 Y81.546 E47.00641
G1 X87.6 Y81.546 E47.74351
G1 X87.6 Y80.846 E47.80966
G0 F4500 X88.654 Y80.986
G1 F1800 X88.654 Y81.406 E47.84935
G0 F4500 X90.987 Y81.406
G1 F1800 X90.987 Y80.986 E47.88904
G0 F4500 X93.32 Y80.986
G1 F1800 X93.32 Y81.406 E47.92873
G10
;MESH:Cover.stl
G0 F4500 X93.32 Y82.921
G0 X85.875 Y83.271
;TYPE:WALL-INNER
G11
G1 F1800 X97.125 Y83.271 E48.99185
G1 X97.125 Y79.121 E49.38403
G1 X85.875 Y79.121 E50.44715
G1 X85.875 Y83.271 E50.83933
G0 F4500 X79.161 Y84.843
G0 X78.839 Y89.271
G1 F1800 X88.446 Y89.271 E51.74719
G1 X88.446 Y84.521 E52.19607
G1 X78.839 Y84.521 E53.10393
G1 X78.839 Y89.271 E53.5528
G0 F4500 X63.125 Y89.271
G1 F1800 X72.732 Y89.271 E54.46066
G1 X72.732 Y84.521 E54.90954
G1 X67.875 Y84.521 E55.36852
G1 X67.875 Y80.854 E55.71506
G1 X63.125 Y80.854 E56.16393
G1 X63.125 Y89.271 E56.95934
G0 F4500 X63.125 Y75.938
G1 F1800 X67.875 Y75.938 E57.40821
G1 X67.875 Y72.271 E57.75474
G1 X72.732 Y72.271 E58.21373
G1 X72.732 Y67.521 E58.66261
G1 X63.125 Y67.521 E59.57047
G1 X63.125 Y75.938 E60.36587
G0 F4500 X67.553 Y75.616
G0 X78.839 Y72.271
G1 F1800 X88.446 Y72.271 E61.27374
G1 X88.446 Y67.521 E61.72261
G1 X78.839 Y67.521 E62.63047
G1 X78.839 Y72.271 E63.07935
G0 F4500 X94.554 Y72.271
G1 F1800 X104.161 Y72.271 E63.98721
G1 X104.161 Y67.521 E64.43608
G1 X94.554 Y67.521 E65.34394
G1 X94.554 Y72.271 E65.79282
G0 F4500 X110.268 Y72.271
G1 F1800 X115.125 Y72.271 E66.25181
G1 X115.125 Y75.938 E66.59834
G1 X119.875 Y75.938 E67.04721
G1 X119.875 Y67.521 E67.84262
G1 X110.268 Y67.521 E68.75048
G1 X110.268 Y72.271 E69.19936
G0 F4500 X110.268 Y84.521
G1 F1800 X110.268 Y89.271 E69.64823
G1 X119.875 Y89.271 E70.55609
G1 X119.875 Y80.854 E71.3515
G1 X115.125 Y80.854 E71.80037
G1 X115.125 Y84.521 E72.14691
G1 X110.268 Y84.521 E72.60589
G0 F4500 X103.839 Y88.949
G0 X94.554 Y89.271
G1 F1800 X104.161 Y89.271 E73.51375
G1 X104.161 Y84.521 E73.96263
G1 X94.554 Y84.521 E74.87049
G1 X94.554 Y89.271 E75.31936
G0 F4500 X115.98 Y113.457
G1 F1800 X114.177 Y114.001 E75.49733
G1 X112.419 Y114.674 E75.67522
G1 X110.714 Y115.472 E75.85312
G1 X109.073 Y116.393 E76.03095
G1 X107.503 Y117.433 E76.20891
G1 X106.012 Y118.584 E76.38691
G1 X104.61 Y119.84 E76.56479
G1 X103.303 Y121.195 E76.7427
G1 X102.1 Y122.643 E76.9206
G1 X101.003 Y124.174 E77.09858
G1 X100.022 Y125.781 E77.2765
G1 X99.162 Y127.455 E77.45435
G1 X98.425 Y129.189 E77.6324
G1 X97.818 Y130.969 E77.81012
G1 X97.342 Y132.791 E77.98808
G1 X96.999 Y134.643 E78.16607
G1 X96.793 Y136.514 E78.34395
G1 X96.725 Y138.396 E78.52191
G1 X96.793 Y140.277 E78.69979
G1 X96.999 Y142.148 E78.87766
G1 X97.342 Y144.001 E79.05575
G1 X97.818 Y145.823 E79.2337
G1 X98.425 Y147.603 E79.41143
G1 X99.162 Y149.337 E79.58948
G1 X100.022 Y151.01 E79.76724
G1 X101.003 Y152.618 E79.94524
G1 X102.1 Y154.149 E80.12323
G1 X103.303 Y155.597 E80.30113
G1 X104.61 Y156.951 E80.47897
G1 X106.012 Y158.208 E80.65691
G1 X107.503 Y159.36 E80.83496
G1 X109.074 Y160.398 E81.0129
G1 X110.714 Y161.319 E81.19065
G1 X112.419 Y162.117 E81.36855
G1 X114.177 Y162.79 E81.54644
G1 X115.98 Y163.334 E81.72441
G1 X117.819 Y163.743 E81.90244
G1 X119.682 Y164.016 E82.08037
G1 X121.559 Y164.154 E82.25823
G1 X123.441 Y164.154 E82.43607
G1 X125.318 Y164.016 E82.61393
G1 X127.181 Y163.743 E82.79186
G1 X129.02 Y163.334 E82.9699
G1 X130.823 Y162.79 E83.14787
G1 X132.581 Y162.117 E83.32575
G1 X134.286 Y161.319 E83.50365
G1 X135.926 Y160.398 E83.6814
G1 X137.497 Y159.36 E83.85934
G1 X138.988 Y158.208 E84.03739
G1 X140.39 Y156.951 E84.21533
G1 X141.697 Y155.597 E84.39317
G1 X142.9 Y154.149 E84.57107
G1 X143.997 Y152.618 E84.74906
G1 X144.978 Y151.01 E84.92706
G1 X145.838 Y149.337 E85.10482
G1 X146.575 Y147.603 E85.28287
G1 X147.182 Y145.823 E85.4606
G1 X147.658 Y144.001 E85.63855
G1 X148.001 Y142.148 E85.81664
G1 X148.207 Y140.277 E85.99451
G1 X148.275 Y138.396 E86.17239
G1 X148.207 Y136.514 E86.35035
G1 X148.001 Y134.643 E86.52823
G1 X147.658 Y132.791 E86.70622
G1 X147.182 Y130.969 E86.88418
G1 X146.575 Y129.189 E87.0619
G1 X145.838 Y127.455 E87.23995
G1 X144.978 Y125.781 E87.4178
G1 X143.997 Y124.174 E87.59572
G1 X142.9 Y122.643 E87.7737
G1 X141.697 Y121.195 E87.9516
G1 X140.39 Y119.84 E88.12951
G1 X138.988 Y118.584 E88.30739
G1 X137.497 Y117.433 E88.48539
G1 X135.927 Y116.393 E88.66335
G1 X134.286 Y115.472 E88.84118
G1 X132.581 Y114.674 E89.01908
G1 X130.823 Y114.001 E89.19697
G1 X129.02 Y113.457 E89.37494
G1 X127.182 Y113.049 E89.55285
G1 X125.319 Y112.775 E89.7308
G1 X123.441 Y112.637 E89.90875
G1 X121.559 Y112.637 E90.0866
G1 X119.681 Y112.775 E90.26455
G1 X117.818 Y113.049 E90.4425
G1 X115.98 Y113.457 E90.62042
G0 F4500 X110.856 Y115.749
G0 X109.236 Y116.658
G0 X107.684 Y117.686
G0 X86.456 Y134.605
G1 F1800 X85.757 Y133.991 E90.70834
G1 X84.966 Y133.504 E90.79612
G1 X84.104 Y133.157 E90.88393
G1 X83.195 Y132.962 E90.97178
G1 X82.267 Y132.922 E91.05956
G1 X81.346 Y133.041 E91.14732
G1 X80.457 Y133.313 E91.23517
G1 X79.628 Y133.731 E91.32291
G1 X78.88 Y134.283 E91.41076
G1 X78.238 Y134.954 E91.49852
G1 X77.717 Y135.724 E91.58637
G1 X77.336 Y136.57 E91.67405
G1 X77.101 Y137.469 E91.76186
G1 X77.022 Y138.396 E91.84978
G1 X77.101 Y139.322 E91.93761
G1 X77.336 Y140.221 E92.02542
G1 X77.717 Y141.067 E92.1131
G1 X78.238 Y141.838 E92.20103
G1 X78.88 Y142.509 E92.28879
G1 X79.628 Y143.061 E92.37664
G1 X80.457 Y143.479 E92.46438
G1 X81.346 Y143.751 E92.55223
G1 X82.267 Y143.87 E92.63999
G1 X83.197 Y143.83 E92.72796
G1 X84.105 Y143.634 E92.81574
G1 X84.966 Y143.287 E92.90346
G1 X85.757 Y142.8 E92.99124
G1 X86.455 Y142.187 E93.07903
G1 X87.038 Y141.464 E93.1668
G1 X87.492 Y140.653 E93.25463
G1 X87.802 Y139.775 E93.34262
G1 X87.958 Y138.861 E93.43024
G1 X87.958 Y137.931 E93.51813
G1 X87.802 Y137.017 E93.60575
G1 X87.492 Y136.139 E93.69374
G1 X87.038 Y135.328 E93.78157
G1 X86.456 Y134.605 E93.86928
G0 F4500 X74.56 Y123.826
G1 F1800 X75.27 Y123.593 E93.9399
G1 X75.902 Y123.193 E94.01058
G1 X76.412 Y122.647 E94.08118
G1 X76.773 Y121.994 E94.15169
G1 X76.958 Y121.269 E94.2224
G1 X76.958 Y120.523 E94.2929
G1 X76.774 Y119.8 E94.3634
G1 X76.412 Y119.141 E94.43445
G1 X75.901 Y118.598 E94.50491
G1 X75.27 Y118.199 E94.57547
G1 X74.56 Y117.966 E94.64608
G1 X73.812 Y117.92 E94.7169
G1 X73.079 Y118.059 E94.7874
G1 X72.403 Y118.378 E94.85804
G1 X71.826 Y118.854 E94.92873
G1 X71.387 Y119.459 E94.99937
G1 X71.112 Y120.154 E95.07
G1 X71.017 Y120.896 E95.14069
G1 X71.112 Y121.638 E95.21138
G1 X71.387 Y122.333 E95.28201
G1 X71.826 Y122.936 E95.3525
G1 X72.402 Y123.414 E95.42323
G1 X73.079 Y123.733 E95.49395
G1 X73.812 Y123.872 E95.56446
G1 X74.56 Y123.826 E95.63528
G0 F4500 X76.647 Y155.563
G0 X76.482 Y156.878
G0 X75.79 Y157.858
G0 X74.56 Y158.826
G1 F1800 X75.27 Y158.593 E95.70589
G1 X75.902 Y158.193 E95.77657
G1 X76.412 Y157.647 E95.84718
G1 X76.773 Y156.994 E95.91769
G1 X76.958 Y156.269 E95.9884
G1 X76.958 Y155.523 E96.05889
G1 X76.774 Y154.8 E96.12939
G1 X76.412 Y154.141 E96.20045
G1 X75.901 Y153.598 E96.27091
G1 X75.27 Y153.199 E96.34146
G1 X74.56 Y152.966 E96.41208
G1 X73.812 Y152.92 E96.4829
G1 X73.079 Y153.059 E96.5534
G1 X72.403 Y153.378 E96.62404
G1 X71.826 Y153.854 E96.69472
G1 X71.387 Y154.459 E96.76536
G1 X71.112 Y155.154 E96.83599
G1 X71.017 Y155.896 E96.90668
G1 X71.112 Y156.638 E96.97737
G1 X71.387 Y157.333 E97.04801
G1 X71.826 Y157.936 E97.11849
G1 X72.402 Y158.414 E97.18923
G1 X73.079 Y158.733 E97.25995
G1 X73.812 Y158.872 E97.33045
G1 X74.56 Y158.826 E97.40127
G0 F4500 X75.702 Y157.951
G0 X147.097 Y57.271
G1 F1800 X147.097 Y54.271 E97.68477
G1 X159.236 Y54.271 E98.83191
G1 X159.236 Y57.271 E99.11541
G1 X170.125 Y57.271 E100.14442
G1 X170.125 Y71.414 E101.48093
G1 X173.125 Y71.414 E101.76443
G1 X173.125 Y86.807 E103.21907
G1 X170.125 Y86.807 E103.50257
G1 X170.125 Y105.699 E105.28786
G1 X173.125 Y105.699 E105.57136
G1 X173.125 Y121.092 E107.026
G1 X170.125 Y121.092 E107.3095
G1 X170.125 Y139.985 E109.09489
G1 X173.125 Y139.985 E109.37839
G1 X173.125 Y155.378 E110.83303
G1 X170.125 Y155.378 E111.11653
G1 X170.125 Y169.521 E112.45304
G1 X159.236 Y169.521 E113.48205
G1 X159.236 Y172.521 E113.76555
G1 X147.097 Y172.521 E114.91269
G1 X147.097 Y169.521 E115.19619
G1 X131.458 Y169.521 E116.67407
G1 X131.458 Y172.521 E116.95757
G1 X119.319 Y172.521 E118.10471
G1 X119.319 Y169.521 E118.38821
G1 X103.681 Y169.521 E119.866
G1 X103.681 Y172.521 E120.1495
G1 X91.542 Y172.521 E121.29664
G1 X91.542 Y169.521 E121.58014
G1 X75.903 Y169.521 E123.05802
G1 X75.903 Y172.521 E123.34152
G1 X63.764 Y172.521 E124.48866
G1 X63.764 Y169.521 E124.77216
G1 X52.875 Y169.521 E125.80117
G1 X52.875 Y155.378 E127.13768
G1 X49.875 Y155.378 E127.42118
G1 X49.875 Y139.985 E128.87582
G1 X52.875 Y139.985 E129.15932
G1 X52.875 Y121.092 E130.94471
G1 X49.875 Y121.092 E131.22821
G1 X49.875 Y105.699 E132.68285
G1 X52.875 Y105.699 E132.96635
G1 X52.875 Y86.807 E134.75164
G1 X49.875 Y86.807 E135.03514
G1 X49.875 Y71.414 E136.48978
G1 X52.875 Y71.414 E136.77328
G1 X52.875 Y57.271 E138.10979
G1 X63.764 Y57.271 E139.1388
G1 X63.764 Y54.271 E139.4223
G1 X75.903 Y54.271 E140.56944
G1 X75.903 Y57.271 E140.85294
G1 X91.542 Y57.271 E142.33082
G1 X91.542 Y54.271 E142.61432
G1 X103.681 Y54.271 E143.76146
G1 X103.681 Y57.271 E144.04496
G1 X119.319 Y57.271 E145.52275
G1 X119.319 Y54.271 E145.80625
G1 X131.458 Y54.271 E146.95339
G1 X131.458 Y57.271 E147.23689
G1 X147.097 Y57.271 E148.71477
G0 F4500 X146.747 Y56.921
G1 F1800 X146.747 Y53.921 E148.99827
G1 X159.586 Y53.921 E150.21156
G1 X159.586 Y56.921 E150.49506
G1 X170.475 Y56.921 E151.52407
G1 X170.475 Y71.064 E152.86058
G1 X173.475 Y71.064 E153.14408
G1 X173.475 Y87.157 E154.66487
G1 X170.475 Y87.157 E154.94837
G1 X170.475 Y105.349 E156.66751
G1 X173.475 Y105.349 E156.95101
