;FLAVOR:UltiGCode
;TIME:1643
;MATERIAL:4976
;MATERIAL2:0
;NOZZLE_DIAMETER:0.4
;MINX:90.367
;MINY:90.347
;MINZ:0.27
;MAXX:132.676
;MAXY:132.653
;MAXZ:46.52
;Generated with Cura_SteamEngine 4.6.1
M82 ;absolute extrusion mode

G92 E0
G92 E0
G10
;LAYER_COUNT:186
;LAYER:0
M107
G0 F4500 X96.516 Y96.588 Z0.27
;TYPE:SKIRT
G11
G1 F1800 X96.918 Y96.195 E0.05313
G1 X97.64 Y95.536 E0.1455
G1 X98.1 Y95.147 E0.20243
G1 X98.864 Y94.55 E0.29406
G1 X99.309 Y94.226 E0.34608
G1 X100.114 Y93.683 E0.43784
G1 X100.614 Y93.373 E0.49343
G1 X101.462 Y92.889 E0.5857
G1 X101.977 Y92.62 E0.64061
G1 X102.839 Y92.209 E0.73085
G1 X103.355 Y91.985 E0.78401
G1 X104.266 Y91.628 E0.87648
G1 X104.813 Y91.436 E0.93126
G1 X105.738 Y91.15 E1.02275
G1 X106.286 Y91.002 E1.0764
G1 X107.231 Y90.783 E1.16807
G1 X107.821 Y90.67 E1.22483
G1 X108.791 Y90.522 E1.31756
G1 X109.338 Y90.458 E1.3696
G1 X110.293 Y90.38 E1.46015
G1 X110.877 Y90.354 E1.51539
G1 X111.845 Y90.347 E1.60687
G1 X112.423 Y90.364 E1.66152
G1 X113.403 Y90.429 E1.75433
G1 X113.968 Y90.487 E1.808
G1 X114.916 Y90.619 E1.89845
G1 X115.491 Y90.721 E1.95364
G1 X116.455 Y90.929 E2.04683
G1 X117.006 Y91.069 E2.10056
G1 X117.932 Y91.34 E2.19174
G1 X118.474 Y91.52 E2.24571
G1 X119.374 Y91.856 E2.33649
G1 X119.899 Y92.074 E2.39021
G1 X120.792 Y92.483 E2.48303
G1 X121.326 Y92.753 E2.53957
G1 X122.168 Y93.219 E2.63052
G1 X122.647 Y93.506 E2.68329
G1 X123.47 Y94.041 E2.77605
G1 X123.946 Y94.377 E2.83111
G1 X124.711 Y94.959 E2.92194
G1 X125.153 Y95.321 E2.97593
G1 X125.875 Y95.958 E3.06692
G1 X126.297 Y96.359 E3.12193
G1 X126.981 Y97.059 E3.21442
G1 X127.368 Y97.485 E3.26881
G1 X127.989 Y98.221 E3.35981
G1 X128.343 Y98.672 E3.41399
G1 X128.918 Y99.464 E3.50648
G1 X129.23 Y99.928 E3.55932
G1 X129.745 Y100.755 E3.65138
G1 X130.035 Y101.262 E3.70658
G1 X130.48 Y102.111 E3.79716
G1 X130.73 Y102.635 E3.85203
G1 X131.121 Y103.537 E3.94493
G1 X131.331 Y104.074 E3.99942
G1 X131.651 Y104.991 E4.0912
G1 X131.819 Y105.533 E4.14482
G1 X132.072 Y106.47 E4.23654
G1 X132.204 Y107.044 E4.2922
G1 X132.383 Y107.98 E4.38226
G1 X132.469 Y108.541 E4.43589
G1 X132.584 Y109.521 E4.52913
G1 X132.631 Y110.098 E4.58384
G1 X132.673 Y111.067 E4.6755
G1 X132.676 Y111.645 E4.73012
G1 X132.647 Y112.608 E4.82116
G1 X132.612 Y113.156 E4.87306
G1 X132.516 Y114.114 E4.96404
G1 X132.434 Y114.706 E5.02052
G1 X132.264 Y115.663 E5.11237
G1 X132.146 Y116.211 E5.16534
G1 X131.909 Y117.151 E5.25695
G1 X131.745 Y117.714 E5.31237
G1 X131.439 Y118.633 E5.4039
G1 X131.236 Y119.176 E5.45868
G1 X130.857 Y120.085 E5.55175
G1 X130.627 Y120.586 E5.60385
G1 X130.198 Y121.441 E5.69425
G1 X129.91 Y121.964 E5.75067
G1 X129.403 Y122.808 E5.84371
G1 X129.083 Y123.298 E5.89901
G1 X128.531 Y124.079 E5.98939
G1 X128.188 Y124.529 E6.04286
G1 X127.567 Y125.286 E6.13539
G1 X127.193 Y125.71 E6.18882
G1 X126.531 Y126.408 E6.27973
G1 X126.126 Y126.805 E6.33332
G1 X125.404 Y127.464 E6.4257
G1 X124.944 Y127.853 E6.48263
G1 X124.18 Y128.45 E6.57425
G1 X123.731 Y128.776 E6.62669
G1 X122.925 Y129.319 E6.71853
G1 X122.429 Y129.627 E6.7737
G1 X121.581 Y130.111 E6.86597
G1 X121.069 Y130.379 E6.92058
G1 X120.208 Y130.79 E7.01074
G1 X119.689 Y131.015 E7.0642
G1 X118.778 Y131.372 E7.15666
G1 X118.229 Y131.564 E7.21162
G1 X117.303 Y131.85 E7.30321
G1 X116.759 Y131.997 E7.35646
G1 X115.815 Y132.216 E7.44804
G1 X115.223 Y132.33 E7.50501
G1 X114.253 Y132.478 E7.59774
G1 X113.705 Y132.542 E7.64987
G1 X112.749 Y132.62 E7.74052
G1 X112.166 Y132.646 E7.79566
G1 X111.198 Y132.653 E7.88714
G1 X110.619 Y132.636 E7.94188
G1 X109.64 Y132.571 E8.0346
G1 X109.077 Y132.513 E8.08809
G1 X108.128 Y132.381 E8.17863
G1 X107.552 Y132.279 E8.23391
G1 X106.588 Y132.071 E8.3271
G1 X106.035 Y131.93 E8.38103
G1 X105.11 Y131.659 E8.47212
G1 X104.57 Y131.48 E8.52588
G1 X103.67 Y131.144 E8.61666
G1 X103.145 Y130.926 E8.67038
G1 X102.252 Y130.517 E8.7632
G1 X101.718 Y130.247 E8.81975
G1 X100.876 Y129.781 E8.91069
G1 X100.397 Y129.494 E8.96346
G1 X99.574 Y128.959 E9.05622
G1 X99.098 Y128.623 E9.11128
G1 X98.337 Y128.044 E9.20164
G1 X97.892 Y127.679 E9.25603
G1 X97.155 Y127.028 E9.34896
G1 X96.735 Y126.629 E9.4037
G1 X96.061 Y125.939 E9.49486
G1 X95.678 Y125.518 E9.54864
G1 X95.047 Y124.771 E9.64105
G1 X94.687 Y124.311 E9.69625
G1 X94.126 Y123.537 E9.78658
G1 X93.814 Y123.072 E9.8395
G1 X93.295 Y122.237 E9.93241
G1 X93.008 Y121.736 E9.98697
G1 X92.564 Y120.889 E10.07734
G1 X92.314 Y120.365 E10.13221
G1 X91.923 Y119.463 E10.22511
G1 X91.713 Y118.926 E10.2796
G1 X91.393 Y118.009 E10.37138
G1 X91.227 Y117.474 E10.42431
G1 X90.973 Y116.537 E10.51606
G1 X90.837 Y115.945 E10.57346
G1 X90.659 Y115.007 E10.66368
G1 X90.575 Y114.458 E10.71616
G1 X90.46 Y113.479 E10.80932
G1 X90.413 Y112.901 E10.86412
G1 X90.371 Y111.933 E10.95568
G1 X90.367 Y111.365 E11.00936
G1 X90.395 Y110.396 E11.10097
G1 X90.433 Y109.825 E11.15504
G1 X90.53 Y108.873 E11.24547
G1 X90.61 Y108.296 E11.30052
G1 X90.781 Y107.332 E11.39304
G1 X90.9 Y106.776 E11.44677
G1 X91.136 Y105.843 E11.53772
G1 X91.299 Y105.286 E11.59256
G1 X91.605 Y104.367 E11.6841
G1 X91.808 Y103.824 E11.73888
G1 X92.187 Y102.915 E11.83195
G1 X92.417 Y102.414 E11.88404
G1 X92.846 Y101.559 E11.97444
G1 X93.137 Y101.031 E12.03141
G1 X93.637 Y100.2 E12.12306
G1 X93.946 Y99.726 E12.17653
G1 X94.508 Y98.928 E12.26877
G1 X94.859 Y98.467 E12.32352
G1 X95.48 Y97.71 E12.41605
G1 X95.857 Y97.282 E12.46995
G1 X96.516 Y96.588 E12.56039
G0 F4500 X96.77 Y96.829
G1 F1800 X97.154 Y96.453 E12.61117
G1 X97.876 Y95.794 E12.70355
G1 X98.316 Y95.423 E12.75794
G1 X99.08 Y94.826 E12.84957
G1 X99.505 Y94.517 E12.89922
G1 X100.31 Y93.974 E12.99098
G1 X100.788 Y93.677 E13.04416
G1 X101.636 Y93.193 E13.13643
G1 X102.127 Y92.936 E13.1888
G1 X102.989 Y92.525 E13.27905
G1 X103.482 Y92.311 E13.32984
G1 X104.393 Y91.954 E13.4223
G1 X104.916 Y91.771 E13.47466
G1 X105.841 Y91.485 E13.56616
G1 X106.365 Y91.343 E13.61746
G1 X107.31 Y91.124 E13.70913
G1 X107.874 Y91.016 E13.7634
G1 X108.844 Y90.868 E13.85612
G1 X109.366 Y90.807 E13.90579
G1 X110.321 Y90.729 E13.99634
G1 X110.88 Y90.704 E14.04921
G1 X111.848 Y90.697 E14.14069
G1 X112.4 Y90.713 E14.19288
G1 X113.38 Y90.778 E14.28569
G1 X113.92 Y90.834 E14.337
G1 X114.868 Y90.966 E14.42745
G1 X115.417 Y91.063 E14.48013
G1 X116.381 Y91.271 E14.57332
G1 X116.908 Y91.405 E14.62471
G1 X117.834 Y91.676 E14.71589
G1 X118.352 Y91.848 E14.76747
G1 X119.252 Y92.184 E14.85825
G1 X119.753 Y92.392 E14.90951
G1 X120.646 Y92.801 E15.00233
G1 X121.157 Y93.059 E15.05643
G1 X121.999 Y93.525 E15.14737
G1 X122.456 Y93.8 E15.19777
G1 X123.279 Y94.335 E15.29053
G1 X123.734 Y94.655 E15.3431
G1 X124.499 Y95.237 E15.43394
G1 X124.921 Y95.583 E15.48551
G1 X125.643 Y96.22 E15.57649
G1 X126.047 Y96.604 E15.62917
G1 X126.731 Y97.304 E15.72165
G1 X127.1 Y97.71 E15.7735
G1 X127.721 Y98.446 E15.8645
G1 X128.059 Y98.878 E15.91634
G1 X128.634 Y99.67 E16.00882
G1 X128.933 Y100.113 E16.05933
G1 X129.448 Y100.94 E16.1514
G1 X129.725 Y101.425 E16.20418
G1 X130.17 Y102.274 E16.29476
G1 X130.409 Y102.774 E16.34713
G1 X130.8 Y103.676 E16.44004
G1 X131.001 Y104.19 E16.49219
G1 X131.321 Y105.107 E16.58397
G1 X131.481 Y105.624 E16.63511
G1 X131.734 Y106.561 E16.72683
G1 X131.86 Y107.11 E16.78006
G1 X132.039 Y108.046 E16.87012
G1 X132.122 Y108.582 E16.92137
G1 X132.237 Y109.562 E17.01462
G1 X132.281 Y110.113 E17.06685
G1 X132.323 Y111.082 E17.15851
G1 X132.327 Y111.635 E17.21077
G1 X132.298 Y112.598 E17.30181
G1 X132.263 Y113.121 E17.35135
G1 X132.167 Y114.079 E17.44233
G1 X132.089 Y114.645 E17.49632
G1 X131.919 Y115.602 E17.58818
G1 X131.807 Y116.126 E17.63881
G1 X131.57 Y117.066 E17.73042
G1 X131.413 Y117.603 E17.78329
G1 X131.107 Y118.522 E17.87483
G1 X130.912 Y119.041 E17.92722
G1 X130.533 Y119.95 E18.02029
G1 X130.314 Y120.429 E18.07006
G1 X129.885 Y121.284 E18.16046
G1 X129.61 Y121.784 E18.21438
G1 X129.103 Y122.628 E18.30743
G1 X128.797 Y123.096 E18.36027
G1 X128.245 Y123.877 E18.45064
G1 X127.918 Y124.307 E18.50169
G1 X127.297 Y125.064 E18.59422
G1 X126.939 Y125.469 E18.6453
G1 X126.277 Y126.167 E18.73621
G1 X125.89 Y126.547 E18.78747
G1 X125.168 Y127.206 E18.87984
G1 X124.728 Y127.577 E18.93423
G1 X123.964 Y128.174 E19.02586
G1 X123.535 Y128.486 E19.07599
G1 X122.729 Y129.029 E19.16783
G1 X122.255 Y129.323 E19.22054
G1 X121.407 Y129.807 E19.31281
G1 X120.919 Y130.063 E19.36488
G1 X120.058 Y130.474 E19.45504
G1 X119.562 Y130.689 E19.50613
G1 X118.651 Y131.046 E19.59859
G1 X118.126 Y131.23 E19.65116
G1 X117.2 Y131.516 E19.74275
G1 X116.68 Y131.656 E19.79364
G1 X115.736 Y131.875 E19.88521
G1 X115.17 Y131.984 E19.93968
G1 X114.2 Y132.132 E20.03241
G1 X113.677 Y132.193 E20.08217
G1 X112.721 Y132.271 E20.17281
G1 X112.163 Y132.296 E20.22559
G1 X111.195 Y132.303 E20.31707
G1 X110.642 Y132.286 E20.36936
G1 X109.663 Y132.221 E20.46208
G1 X109.125 Y132.166 E20.51318
G1 X108.176 Y132.034 E20.60373
G1 X107.626 Y131.937 E20.6565
G1 X106.662 Y131.729 E20.7497
G1 X106.133 Y131.594 E20.80129
G1 X105.208 Y131.323 E20.89238
G1 X104.692 Y131.152 E20.94375
G1 X103.792 Y130.816 E21.03453
G1 X103.291 Y130.608 E21.08579
G1 X102.398 Y130.199 E21.17861
G1 X101.887 Y129.941 E21.23271
G1 X101.045 Y129.475 E21.32365
G1 X100.588 Y129.2 E21.37405
G1 X99.765 Y128.665 E21.46681
G1 X99.31 Y128.345 E21.51938
G1 X98.549 Y127.766 E21.60974
G1 X98.123 Y127.417 E21.66178
G1 X97.386 Y126.766 E21.75471
G1 X96.985 Y126.384 E21.80705
G1 X96.311 Y125.694 E21.8982
G1 X95.945 Y125.292 E21.94957
G1 X95.314 Y124.545 E22.04198
G1 X94.97 Y124.105 E22.09476
G1 X94.409 Y123.331 E22.18509
G1 X94.111 Y122.887 E22.23563
G1 X93.592 Y122.052 E22.32853
G1 X93.318 Y121.574 E22.3806
G1 X92.874 Y120.727 E22.47097
G1 X92.635 Y120.226 E22.52343
G1 X92.244 Y119.324 E22.61633
G1 X92.043 Y118.81 E22.66849
G1 X91.723 Y117.893 E22.76027
G1 X91.565 Y117.383 E22.81072
G1 X91.311 Y116.446 E22.90246
G1 X91.181 Y115.88 E22.95734
G1 X91.003 Y114.942 E23.04757
G1 X90.922 Y114.417 E23.09777
G1 X90.807 Y113.438 E23.19092
G1 X90.763 Y112.886 E23.24325
G1 X90.721 Y111.918 E23.33481
G1 X90.717 Y111.375 E23.38612
G1 X90.745 Y110.406 E23.47773
G1 X90.781 Y109.86 E23.52944
G1 X90.878 Y108.908 E23.61987
G1 X90.955 Y108.357 E23.67245
G1 X91.126 Y107.393 E23.76497
G1 X91.24 Y106.862 E23.81629
G1 X91.476 Y105.929 E23.90724
G1 X91.631 Y105.397 E23.9596
G1 X91.937 Y104.478 E24.05113
G1 X92.132 Y103.959 E24.10353
G1 X92.511 Y103.05 E24.19659
G1 X92.73 Y102.571 E24.24637
G1 X93.159 Y101.716 E24.33676
G1 X93.437 Y101.211 E24.39124
G1 X93.937 Y100.38 E24.48289
G1 X94.233 Y99.927 E24.53403
G1 X94.795 Y99.129 E24.62626
G1 X95.129 Y98.689 E24.67846
G1 X95.75 Y97.932 E24.77099
G1 X96.111 Y97.523 E24.82254
G1 X96.77 Y96.829 E24.91298
G0 F4500 X97.024 Y97.07
G1 F1800 X97.39 Y96.712 E24.96137
G1 X98.112 Y96.053 E25.05374
G1 X98.531 Y95.698 E25.10564
G1 X99.295 Y95.101 E25.19726
G1 X99.701 Y94.807 E25.24463
G1 X100.506 Y94.264 E25.3364
G1 X100.961 Y93.981 E25.38703
G1 X101.809 Y93.497 E25.4793
G1 X102.278 Y93.252 E25.52931
G1 X103.14 Y92.841 E25.61955
G1 X103.61 Y92.637 E25.66797
G1 X104.521 Y92.28 E25.76043
G1 X105.02 Y92.105 E25.8104
G1 X105.945 Y91.819 E25.9019
G1 X106.444 Y91.684 E25.95075
G1 X107.389 Y91.465 E26.04242
G1 X107.927 Y91.362 E26.09418
G1 X108.897 Y91.214 E26.18691
G1 X109.395 Y91.156 E26.23429
G1 X110.35 Y91.078 E26.32484
G1 X110.882 Y91.054 E26.37516
G1 X111.85 Y91.047 E26.46664
G1 X112.377 Y91.063 E26.51646
G1 X113.357 Y91.128 E26.60928
G1 X113.872 Y91.181 E26.6582
G1 X114.82 Y91.313 E26.74865
G1 X115.343 Y91.405 E26.79883
G1 X116.307 Y91.613 E26.89203
G1 X116.809 Y91.741 E26.94099
G1 X117.735 Y92.012 E27.03216
G1 X118.229 Y92.176 E27.08135
G1 X119.129 Y92.512 E27.17214
G1 X119.608 Y92.711 E27.22115
G1 X120.501 Y93.12 E27.31397
G1 X120.987 Y93.365 E27.3654
G1 X121.829 Y93.831 E27.45634
G1 X122.266 Y94.093 E27.50449
G1 X123.089 Y94.628 E27.59726
G1 X123.522 Y94.934 E27.64736
G1 X124.287 Y95.516 E27.7382
G1 X124.69 Y95.846 E27.78742
G1 X125.412 Y96.483 E27.87841
G1 X125.797 Y96.848 E27.92854
G1 X126.481 Y97.548 E28.02103
G1 X126.833 Y97.936 E28.07054
G1 X127.454 Y98.672 E28.16154
G1 X127.776 Y99.084 E28.21095
G1 X128.351 Y99.876 E28.30344
G1 X128.636 Y100.298 E28.35156
G1 X129.151 Y101.125 E28.44363
G1 X129.415 Y101.587 E28.49391
G1 X129.86 Y102.436 E28.5845
G1 X130.088 Y102.913 E28.63446
G1 X130.479 Y103.815 E28.72736
G1 X130.67 Y104.305 E28.77706
G1 X130.99 Y105.222 E28.86884
G1 X131.143 Y105.716 E28.91771
G1 X131.396 Y106.653 E29.00943
G1 X131.516 Y107.175 E29.06004
G1 X131.695 Y108.111 E29.1501
G1 X131.774 Y108.623 E29.19906
G1 X131.889 Y109.603 E29.2923
G1 X131.931 Y110.128 E29.34207
G1 X131.973 Y111.097 E29.43373
G1 X131.977 Y111.624 E29.48353
G1 X131.948 Y112.587 E29.57458
G1 X131.915 Y113.086 E29.62183
G1 X131.819 Y114.044 E29.71282
G1 X131.744 Y114.584 E29.76434
G1 X131.574 Y115.541 E29.85619
G1 X131.467 Y116.04 E29.90442
G1 X131.23 Y116.98 E29.99603
G1 X131.081 Y117.493 E30.04651
G1 X130.775 Y118.412 E30.13804
G1 X130.589 Y118.906 E30.18793
G1 X130.21 Y119.815 E30.28099
G1 X130.001 Y120.272 E30.32848
G1 X129.572 Y121.127 E30.41888
G1 X129.31 Y121.604 E30.47031
G1 X128.803 Y122.448 E30.56335
G1 X128.511 Y122.894 E30.61373
G1 X127.959 Y123.675 E30.70411
G1 X127.647 Y124.085 E30.75279
G1 X127.026 Y124.842 E30.84532
G1 X126.685 Y125.228 E30.89399
G1 X126.023 Y125.926 E30.9849
G1 X125.654 Y126.288 E31.03375
G1 X124.932 Y126.947 E31.12613
G1 X124.513 Y127.302 E31.17802
G1 X123.749 Y127.899 E31.26965
G1 X123.34 Y128.196 E31.31742
G1 X122.534 Y128.739 E31.40926
G1 X122.082 Y129.019 E31.4595
G1 X121.234 Y129.503 E31.55177
G1 X120.768 Y129.747 E31.60148
G1 X119.907 Y130.158 E31.69164
G1 X119.434 Y130.363 E31.74036
G1 X118.523 Y130.72 E31.83282
G1 X118.022 Y130.895 E31.88297
G1 X117.096 Y131.181 E31.97455
G1 X116.6 Y131.315 E32.02311
G1 X115.656 Y131.534 E32.11468
G1 X115.117 Y131.638 E32.16656
G1 X114.147 Y131.786 E32.25928
G1 X113.648 Y131.844 E32.30676
G1 X112.692 Y131.922 E32.3974
G1 X112.161 Y131.946 E32.44763
G1 X111.193 Y131.953 E32.53911
G1 X110.666 Y131.937 E32.58893
G1 X109.687 Y131.872 E32.68165
G1 X109.174 Y131.82 E32.73038
G1 X108.225 Y131.688 E32.82092
G1 X107.7 Y131.595 E32.87131
G1 X106.736 Y131.387 E32.9645
G1 X106.232 Y131.259 E33.01364
G1 X105.307 Y130.988 E33.10473
G1 X104.815 Y130.824 E33.15374
G1 X103.915 Y130.488 E33.24452
G1 X103.436 Y130.289 E33.29354
G1 X102.543 Y129.88 E33.38636
G1 X102.057 Y129.635 E33.43779
G1 X101.215 Y129.169 E33.52873
G1 X100.778 Y128.907 E33.57688
G1 X99.955 Y128.372 E33.66964
G1 X99.521 Y128.066 E33.71983
G1 X98.76 Y127.487 E33.81019
G1 X98.355 Y127.155 E33.85968
G1 X97.618 Y126.504 E33.9526
G1 X97.235 Y126.14 E34.00254
G1 X96.561 Y125.45 E34.09369
G1 X96.213 Y125.066 E34.14266
G1 X95.582 Y124.319 E34.23507
G1 X95.254 Y123.9 E34.28535
G1 X94.693 Y123.126 E34.37568
G1 X94.408 Y122.703 E34.42388
G1 X93.889 Y121.868 E34.51679
G1 X93.628 Y121.411 E34.56653
G1 X93.184 Y120.564 E34.6569
G1 X92.956 Y120.087 E34.70686
G1 X92.565 Y119.185 E34.79976
G1 X92.374 Y118.695 E34.84946
G1 X92.054 Y117.778 E34.94124
G1 X91.903 Y117.291 E34.98942
G1 X91.649 Y116.354 E35.08117
G1 X91.525 Y115.815 E35.13343
G1 X91.347 Y114.877 E35.22366
G1 X91.27 Y114.376 E35.27156
G1 X91.155 Y113.397 E35.36471
G1 X91.113 Y112.871 E35.41457
G1 X91.071 Y111.903 E35.50614
G1 X91.067 Y111.385 E35.55509
G1 X91.095 Y110.416 E35.6467
G1 X91.129 Y109.896 E35.69594
G1 X91.226 Y108.944 E35.78637
G1 X91.299 Y108.418 E35.83655
G1 X91.47 Y107.454 E35.92907
G1 X91.579 Y106.948 E35.97799
G1 X91.815 Y106.015 E36.06893
G1 X91.963 Y105.507 E36.11894
G1 X92.269 Y104.588 E36.21047
G1 X92.455 Y104.094 E36.26035
G1 X92.834 Y103.185 E36.35342
